X:23
T:Faithful Shepherd. ET.23, The
M:C
L:1/8
Q:1/4=120
S:Eliza Tennyson MS, Lincolnshire,1822
R:Song
C:Set by McHoward
N:Incomplete in MS
O:England;Lincolnshire;Somersby
Z:vmp.R.Greig 2012 <http://www.village-music-project.org.uk>
K:D
A2|FG AFD2d2|{fg}a2gfe2A2|B2c2dA GF|(F2E2)z2E2|!
w:What h-ave I- -done ye pow-ers a-bove to mer-it th-us y-our H-ate Why
AB cd ec BA|df af{f}e2d2|{d}c2BA F2^G2|A4||!
w:w-ill y-ou f-orce m-e fr-om th-e plains to live i-n o-dious state
cd|ed cB{B}A3^G/F/|B2c2d2{e/f/}g2|fd cBF2A2″^bar line added”|B4z2d2|!
w:For–g-ive m-e Court-i-ers if I slight Your splen–d-id joys & you For
{B}A2GF”^MS incomplete”{A}G2F<E|
w:had y-ou seen m-y

